X:84
T:Top O' The Hill
C:Andy DeJarlis
S:Bernie Waugh
R:Reel
M:2/4
L:1/16
K:A
|:(3efg|\
"A"aece aece|~f2e2 e2ef|"G"=gagf ged=c|B=GBG B2 (3efg|
"A"aece aece|~f2e2 e2E2|"E"EFGA BcdB|1"A"cAA2 A2:|2"A"cAA2A4||
|:\
"A"[A,2E2][A,E][A,E] [A,2E2][A,E][A,E]|\
[A,E]CEC A,2A,2|"G"=G,B,DF =G2A=c|B2AF =GEDB,|
"A(or F)"[A,2E2][A,E][A,E] [A,2E2][A,E][A,E]|\
[A,E]CEC A,2 E2|"E"EFGA BcdB|1"A"~cAB2 A4:|2"A"~cAB2 A2|]

